brandFactory_export/1.Light/Configurar celular_1Light.svg

<?xml version="1.0" encoding="UTF-8"?>
<svg width="24px" height="24px" viewBox="0 0 24 24" version="1.1" xmlns="http://www.w3.org/2000/svg" xmlns:xlink="http://www.w3.org/1999/xlink">
    <title>1.Light/Configurar celular_1Light</title>
    <g id="Symbols" stroke="none" stroke-width="1" fill="none" fill-rule="evenodd">
        <g id="1.Light/Configurar-celular_1Light" fill="#5CB615" fill-rule="nonzero">
            <path d="M19.4285714,-1.0658141e-14 C21.8252101,-1.0658141e-14 22.9915966,1.18319328 22.9915966,3.61344538 L22.9915966,20 C22.9915966,21.2470588 22.7092437,22.1411765 22.1243697,22.7327731 C21.5394958,23.3243697 20.6588235,23.6134454 19.4285714,23.6134454 L10.8067227,23.6134454 C9.57647059,23.6134454 8.69243697,23.3243697 8.10756303,22.7327731 C7.52268908,22.1411765 7.24369748,21.2470588 7.24369748,20 L7.24316807,15.428 L6.98487395,15.4285714 C6.6487395,15.4285714 6.36816446,15.1785541 6.31992878,14.8552993 L6.31260504,14.7563025 L6.31260504,13.8655462 C6.07731092,13.8151261 5.8487395,13.7411765 5.62689076,13.6504202 L5.62689076,13.6504202 L5.04537815,14.2319328 C4.78319328,14.4941176 4.35630252,14.4941176 4.09411765,14.2319328 L4.09411765,14.2319328 L3.21344538,13.3546218 C2.9512605,13.092437 2.9512605,12.6655462 3.21344538,12.4033613 L3.21344538,12.4033613 L3.79495798,11.8218487 C3.70420168,11.6 3.63361345,11.3714286 3.57983193,11.1361345 L3.57983193,11.1361345 L2.69243697,11.1361345 C2.32268908,11.1361345 2.02016807,10.8336134 2.02016807,10.4638655 L2.02016807,10.4638655 L2.02016807,9.22016807 C2.02016807,8.85042017 2.32268908,8.54789916 2.69243697,8.54789916 L2.69243697,8.54789916 L3.58319328,8.54789916 C3.63361345,8.31260504 3.70756303,8.08403361 3.79831933,7.86218487 L3.79831933,7.86218487 L3.21680672,7.28067227 C2.95462185,7.01848739 2.95462185,6.59159664 3.21680672,6.32941176 L3.21680672,6.32941176 L4.09747899,5.4487395 C4.35966387,5.18655462 4.78655462,5.18655462 5.0487395,5.4487395 L5.0487395,5.4487395 L5.6302521,6.0302521 C5.85210084,5.9394958 6.08067227,5.86890756 6.31596639,5.81512605 L6.31596639,5.81512605 L6.31596639,4.92436975 C6.31596639,4.55462185 6.61848739,4.25210084 6.98823529,4.25210084 L6.98823529,4.25210084 L7.24316807,4.252 L7.24369748,3.61344538 C7.24369748,1.14957983 8.37647059,-1.0658141e-14 10.8067227,-1.0658141e-14 L19.4285714,-1.0658141e-14 Z M19.4285714,0.672268908 L10.8067227,0.672268908 C8.75294118,0.672268908 7.91596639,1.52268908 7.91596639,3.61344538 L7.91516807,4.252 L8.23193277,4.25210084 C8.56806723,4.25210084 8.84864227,4.5021182 8.89435251,4.8278984 L8.90084034,4.92773109 L8.90084034,5.81848739 C9.13613445,5.86890756 9.36470588,5.94285714 9.58655462,6.03361345 L9.58655462,6.03361345 L10.1680672,5.45210084 C10.4302521,5.18991597 10.8571429,5.18991597 11.1193277,5.45210084 L11.1193277,5.45210084 L11.9966387,6.32941176 C12.2588235,6.59159664 12.2588235,7.01848739 11.9966387,7.28067227 L11.9966387,7.28067227 L11.4151261,7.86218487 C11.5058824,8.08403361 11.5764706,8.31260504 11.6302521,8.54789916 L11.6302521,8.54789916 L12.5210084,8.54789916 C12.8907563,8.54789916 13.1932773,8.85042017 13.1932773,9.22016807 L13.1932773,9.22016807 L13.1932773,10.4638655 C13.1932773,10.8336134 12.8907563,11.1361345 12.5210084,11.1361345 L12.5210084,11.1361345 L11.6302521,11.1361345 C11.5798319,11.3714286 11.5058824,11.6 11.4151261,11.8218487 L11.4151261,11.8218487 L11.9966387,12.4033613 C12.2588235,12.6655462 12.2588235,13.092437 11.9966387,13.3546218 L11.9966387,13.3546218 L11.1193277,14.2319328 C10.8571429,14.4941176 10.4302521,14.4941176 10.1680672,14.2319328 L10.1680672,14.2319328 L9.58655462,13.6504202 C9.36470588,13.7411765 9.13613445,13.8117647 8.90084034,13.8655462 L8.90084034,13.8655462 L8.90084034,14.7563025 C8.90084034,15.1260504 8.59831933,15.4285714 8.22857143,15.4285714 L8.22857143,15.4285714 L7.91516807,15.428 L7.91596639,20 C7.91596639,21.0621849 8.13445378,21.8016807 8.58823529,22.2621849 C9.04201681,22.7226891 9.76470588,22.9445378 10.8067227,22.9445378 L19.4285714,22.9445378 C20.4705882,22.9445378 21.1966387,22.7226891 21.6470588,22.2621849 C22.097479,21.8016807 22.3193277,21.0621849 22.3193277,20 L22.3193277,3.61344538 C22.3193277,1.55294118 21.4554622,0.672268908 19.4285714,0.672268908 Z M15.1193277,18.8033613 C15.7243697,18.8033613 16.1176471,19.1226891 16.1176471,19.805042 C16.1176471,20.1344538 16.0268908,20.3764706 15.8655462,20.5411765 C15.6907563,20.7193277 15.4352941,20.8067227 15.1193277,20.8067227 C14.8033613,20.8067227 14.5478992,20.7193277 14.3731092,20.5411765 C14.2117647,20.3764706 14.1210084,20.1310924 14.1210084,19.805042 C14.1210084,19.1226891 14.5142857,18.8033613 15.1193277,18.8033613 Z M8.23193277,4.92436975 L6.99159664,4.92436975 L6.99159664,6.38319328 C6.41008403,6.44369748 5.91260504,6.59831933 5.49915966,6.84705882 L5.49915966,6.84705882 L4.57478992,5.92268908 L3.69411765,6.8 L4.61512605,7.72436975 C4.37310924,8.12773109 4.21512605,8.62521008 4.1512605,9.21680672 L4.1512605,9.21680672 L2.69243697,9.21680672 L2.69243697,10.4605042 L4.1512605,10.4605042 C4.21512605,11.0521008 4.3697479,11.5495798 4.61512605,11.9529412 L4.61512605,11.9529412 L3.6907563,12.8773109 L4.57142857,13.7579832 L5.49579832,12.8336134 C5.9092437,13.0823529 6.41008403,13.2336134 6.98823529,13.297479 L6.98823529,13.297479 L6.98823529,14.7563025 L8.23193277,14.7563025 L8.23193277,13.297479 C8.81344538,13.2369748 9.31092437,13.0823529 9.72436975,12.8336134 L9.72436975,12.8336134 L10.6487395,13.7579832 L11.5260504,12.8773109 L10.6016807,11.9529412 C10.8436975,11.5495798 11.0016807,11.0521008 11.0655462,10.4605042 L11.0655462,10.4605042 L12.5243697,10.4605042 L12.5243697,9.21680672 L11.0655462,9.21680672 C11.005042,8.62521008 10.8470588,8.12773109 10.6016807,7.72436975 L10.6016807,7.72436975 L11.5260504,6.8 L10.6487395,5.92268908 L9.72436975,6.84705882 C9.31092437,6.59831933 8.81008403,6.44705882 8.23193277,6.38319328 L8.23193277,6.38319328 L8.23193277,4.92436975 Z M7.61008403,7.75798319 C8.9512605,7.75798319 9.6907563,8.49747899 9.6907563,9.83865546 C9.6907563,11.1798319 8.9512605,11.9193277 7.61008403,11.9193277 C6.26890756,11.9193277 5.52941176,11.1798319 5.52941176,9.83865546 C5.52941176,8.49747899 6.26890756,7.75798319 7.61008403,7.75798319 Z M7.61008403,8.4302521 C6.6487395,8.4302521 6.20168067,8.87731092 6.20168067,9.83865546 C6.20168067,10.8 6.6487395,11.2470588 7.61008403,11.2470588 C8.57142857,11.2470588 9.01848739,10.8 9.01848739,9.83865546 C9.01848739,8.87731092 8.57142857,8.4302521 7.61008403,8.4302521 Z" id="Configurar-celular_1Light"></path>
        </g>
    </g>
</svg>

<svg width="24" height="24" viewBox="0 0 24 24" xmlns="http://www.w3.org/2000/svg"><path d="M19.429 0c2.396 0 3.563 1.183 3.563 3.613V20c0 1.247-.283 2.141-.868 2.733-.585.591-1.465.88-2.695.88h-8.622c-1.23 0-2.115-.289-2.7-.88-.584-.592-.863-1.486-.863-2.733v-4.572h-.26a.675.675 0 01-.664-.573l-.007-.099v-.89a4.058 4.058 0 01-.686-.216l-.582.582a.674.674 0 01-.95 0l-.882-.877a.674.674 0 010-.952l.582-.581a4.388 4.388 0 01-.215-.686h-.888a.674.674 0 01-.672-.672V9.22c0-.37.303-.672.672-.672h.891c.05-.235.125-.464.215-.686l-.581-.581a.674.674 0 010-.952l.88-.88a.674.674 0 01.952 0l.581.581c.222-.09.45-.161.686-.215v-.89c0-.37.302-.673.672-.673h.255v-.639C7.244 1.15 8.377 0 10.808 0h8.622zm0 .672h-8.622c-2.054 0-2.891.85-2.891 2.941v.639h.316a.67.67 0 01.662.576l.007.1v.89c.235.05.464.125.686.216l.581-.582a.674.674 0 01.951 0l.878.877a.674.674 0 010 .952l-.582.581c.09.222.161.45.215.686h.891c.37 0 .672.302.672.672v1.244c0 .37-.302.672-.672.672h-.89c-.051.235-.125.464-.216.686l.582.581a.674.674 0 010 .952l-.878.877a.674.674 0 01-.95 0l-.582-.582c-.222.091-.45.162-.686.216v.89c0 .37-.303.673-.672.673l-.314-.001L7.916 20c0 1.062.218 1.802.672 2.262.454.46 1.177.683 2.219.683h8.622c1.042 0 1.768-.222 2.218-.683.45-.46.672-1.2.672-2.262V3.613c0-2.06-.864-2.94-2.89-2.94zm-4.31 18.131c.605 0 .999.32.999 1.002 0 .33-.091.571-.252.736-.175.178-.43.266-.747.266-.316 0-.571-.088-.746-.266-.161-.165-.252-.41-.252-.736 0-.682.393-1.002.998-1.002zM8.232 4.924h-1.24v1.46c-.582.06-1.08.214-1.493.463l-.924-.924-.88.877.92.924c-.242.404-.4.901-.464 1.493H2.692v1.244h1.46c.063.591.218 1.089.463 1.492l-.924.924.88.881.925-.924c.413.248.914.4 1.492.463v1.46h1.244v-1.46c.581-.06 1.079-.215 1.492-.463l.925.924.877-.88-.924-.925c.242-.403.4-.9.464-1.492h1.458V9.217h-1.458c-.061-.592-.219-1.09-.464-1.493l.924-.924-.877-.877-.925.924c-.413-.249-.914-.4-1.492-.464V4.924zM7.61 7.758c1.341 0 2.08.74 2.08 2.08 0 1.342-.739 2.081-2.08 2.081-1.341 0-2.08-.74-2.08-2.08 0-1.342.739-2.081 2.08-2.081zm0 .672c-.961 0-1.408.447-1.408 1.409 0 .961.447 1.408 1.408 1.408.961 0 1.408-.447 1.408-1.408 0-.962-.447-1.409-1.408-1.409z" fill="#5CB615" fill-rule="nonzero"/></svg>
